view-compact-outline.svg

<svg fill="currentColor" viewBox="0 0 24 24"><path d="M3 5v14h19V5zm2 2h15v4H5zm0 10v-4h4v4zm6 0v-4h9v4z"/></svg>

<svg  viewBox="0 0 24 24" fill="currentColor"><path  d="M3,5V19H22V5H3M5,7H20V11H5V7M5,17V13H9V17H5M11,17V13H20V17H11Z"/></svg>
